X:18
T:Bourree a Durin
C:Serge Durin
I:Bourree Centre France
Q:1/4=150
M:2/4
K:Bb
d4^c2d2|B6A2|G3A B2G2|ABAG ^F2D2|d4^c2d2|B6 A2|G3A B2G2|A8:|
D3=E ^F2D2|G^FGA B2AG|^F3G A2^F2|G^FGA G2^F2|D3=E ^F2D2|
G^FGA B2AG|^F3G A2^F2|G8:|
